storage/app/icons/tabler/filled/speedboat.svg

<!--
unicode: "100f6"
version: "3.27"
-->
<svg
  xmlns="http://www.w3.org/2000/svg"
  width="24"
  height="24"
  viewBox="0 0 24 24"
  fill="currentColor"
>
  <path d="M14 7a1 1 0 0 1 .832 .445l1.702 2.555h5.466a1 1 0 0 1 .833 1.554l-3.1 4.66a4 4 0 0 1 -3.333 1.786h-14.4a1 1 0 0 1 -.936 -1.351l1.5 -4a1 1 0 0 1 .936 -.649h1.756l.9 -3h-.156a1 1 0 0 1 -.993 -.883l-.007 -.117a1 1 0 0 1 1 -1zm-6.657 5h1.887c.383 0 .762 -.074 1.12 -.219l3.557 -1.418q .186 -.075 .377 -.135l-.82 -1.228h-5.22z" />
</svg>

<svg xmlns="http://www.w3.org/2000/svg" width="24" height="24" fill="currentColor" viewBox="0 0 24 24"><path d="M14 7a1 1 0 0 1 .832.445L16.534 10H22a1 1 0 0 1 .833 1.554l-3.1 4.66A4 4 0 0 1 16.4 18H2a1 1 0 0 1-.936-1.351l1.5-4A1 1 0 0 1 3.5 12h1.756l.9-3H6a1 1 0 0 1-.993-.883L5 8a1 1 0 0 1 1-1zm-6.657 5H9.23c.383 0 .762-.074 1.12-.219l3.557-1.418q.186-.075.377-.135L13.464 9h-5.22z"/></svg>
